X: 605
T: Kitty got a clinking coming from the races
C: anon.
O: Ireland
B: Francis O'Neill: "The Dance Music of Ireland" (1907) no. 605
R: Reel
Z: Transcribed by Frank Nordberg - http://www.musicaviva.com
F: http://www.musicaviva.com/abc/tunes/ireland/oneill-1001/oneill-1001-060
5.abc
M: 4/4
L: 1/8
K: D
AG|FDFA d2dc|BABc d2d2|FAAB d2dB|ABAF E2D2|FDFA d2dc|BABc d2d2|FAAd BcdB|
AFDF E2D2|
FAAd BGGB|AFFA GEE2|FAAd BGGB|AFDF E2D2|FAAd BGGB|AFFA GEE2|FAAd BcdB|AFD
F E2D2|]
W:
W:
W: From Musica Viva - http://www.musicaviva.com
W: the Internet center for free sheet music downloads.


